packages/calcite-ui-icons/icons/tapestry-16.svg

<?xml version="1.0" encoding="UTF-8"?><svg id="icons" xmlns="http://www.w3.org/2000/svg" viewBox="0 0 16 16"><defs><style>.cls-1{fill:none;}</style></defs><path d="M7,12h-2v-2h2v2ZM7,4h-2v2h2v-2ZM9,7h-2v2h2v-2ZM9,5h-1v1h1v-1ZM11,5h-1v1h1v-1ZM9,10h-1v1h1v-1ZM6,7h-1v1h1v-1ZM4,7h-1v1h1v-1ZM4,5h-1v1h1v-1ZM4,9h-1v1h1v-1ZM9,4v-.57611c-.31842-.13977-.65125-.25165-1-.32275v.89886h1ZM8.16277,13.90759c-.33635.05652-.67985.09241-1.03242.09241-3.36995,0-6.11172-2.69171-6.11172-6S3.76039,2,7.13034,2c2.65485,0,4.91343,1.67346,5.75511,4h.35662c.26821,0,.52317.05408.75793.14697-.8285-2.96527-3.58619-5.14697-6.86966-5.14697C3.19233,1,0,4.13397,0,8s3.19233,7,7.13034,7c.32541,0,.64317-.02887.95701-.07031l.07541-1.02209ZM14,8v1c0,.55225-.44769,1-1,1h-1c-.55231,0-1-.44775-1-1v-1c0-.55231.44769-1,1-1h1c.55231,0,1,.44769,1,1ZM13,8h-1v1h1v-1ZM10.25977,13.34326c.04297-.75342.5459-1.34326,1.14453-1.34326h2.19141c.59863,0,1.10156.58984,1.14648,1.36475l.26367,2.59131.99414-.10059-.26172-2.56982c-.07324-1.28174-1.01465-2.28564-2.14258-2.28564h-2.19141c-1.12793,0-2.06934,1.00391-2.14062,2.26465l-.26074,2.6001.99414.09961.2627-2.62109ZM4,11.97437v-.97437h-.97443c.27905.36871.60571.69531.97443.97437Z"/><rect class="cls-1" width="16" height="16"/></svg>

<svg xmlns="http://www.w3.org/2000/svg" viewBox="0 0 16 16"><path d="M7 12H5v-2h2v2zm0-8H5v2h2V4zm2 3H7v2h2V7zm0-2H8v1h1V5zm2 0h-1v1h1V5zm-2 5H8v1h1v-1zM6 7H5v1h1V7zM4 7H3v1h1V7zm0-2H3v1h1V5zm0 4H3v1h1V9zm5-5v-.576A4.943 4.943 0 0 0 8 3.1V4h1zm-.837 9.908c-.337.056-.68.092-1.033.092-3.37 0-6.111-2.692-6.111-6S3.76 2 7.13 2c2.655 0 4.914 1.673 5.755 4h.357c.268 0 .523.054.758.147C13.171 3.182 10.414 1 7.13 1 3.192 1 0 4.134 0 8s3.192 7 7.13 7c.326 0 .644-.029.957-.07l.076-1.022zM14 8v1a1 1 0 0 1-1 1h-1a1 1 0 0 1-1-1V8a1 1 0 0 1 1-1h1a1 1 0 0 1 1 1zm-1 0h-1v1h1V8zm-2.74 5.343c.043-.753.546-1.343 1.144-1.343h2.192c.598 0 1.101.59 1.146 1.365l.264 2.591.994-.1-.262-2.57C15.665 12.004 14.724 11 13.596 11h-2.192c-1.128 0-2.07 1.004-2.14 2.265l-.261 2.6.994.1.263-2.622zM4 11.974V11h-.974c.279.369.605.695.974.974z"/><path fill="none" d="M0 0h16v16H0z"/></svg>
